!!!!SEGMENT: pl-kk--kk-i-3--014-003_anonim--angelicum-agnus-dei.krn
!!!cenid: 15xx:617
!!!COM: Anonim
!!!COM-rismID: pe30004985
!!!CDT:
!!!CNT:
!!!OPR: Angelicum
!!!OTL: Agnus Dei
!!!OMV: 003
!!!PDT:
!!!AGN:
!!!SMS-siglum: PL-Kk
!!!SMS-shelfmark: Kk.I.3
!!!SMS-shelfwork: 014-003 M
!!!SMS-variant:
!!!SMS-altvar:
!!!NIFC-rismSourceID: 1001145493
!!!NIFC-islandoraID: pl-kk:1170
!!!URL-pdf-islandora: https://repozytorium.nifc.pl/islandora/object/pl-kk%3A1170/datastream/PDF/view
!!!URL-scan: https://polish.musicsources.pl/pl/lokalizacje/galeria/rekopisy/5919 @EN{Scan on Polish Music Sources Website} @PL{Skany w portalu Dziedzictwo Muzyki Polskiej w otwartym dostępie}
!!!ONB-nifc: UWAGA: Discantus (s. 68v-69r, skan 0071), Tenor (s. 47r-v, skan 0219-0220), Bassus (s. 64r-v, skan 0367-0368)
!!!AIN: 1 bass 1 tenor 1 vox
!!!key:
**kern	**text	**kern	**text	**kern	**text
*part3	*part3	*part2	*part2	*part1	*part1
*staff3	*staff3	*staff2	*staff2	*staff1	*staff1
*Ibass	*	*Itenor	*	*Ivox	*
*I"Basso	*	*I"Tenore	*	*I"Canto	*
*I'B.	*	*I'T.	*	*I'C.	*
*clefF4	*	*clefC4	*	*clefC3	*
*k[]	*	*k[]	*	*k[]	*
*C:	*	*C:	*	*C:	*
*M2/1	*	*M2/1	*	*M2/1	*
=1-	=1-	=1-	=1-	=1-	=1-
*2\right	*	*2\right	*	*2\right	*
*lig	*	*lig	*	*lig	*
!LO:TX:t=P:problem=w źródle nad pięciolinią adnotacja ".d.A.T"	!	!	!	!	!
!	!	!	!	!LO:TX:t=P:problem=w źródle adnotacja ".t." przed pierwszą nutą [zraz obok niej klucz C3]	!
1E	A-	1E	A-	1B	A-
1D	.	1F	.	1d	.
*Xlig	*	*Xlig	*	*Xlig	*
=2-	=2-	=2-	=2-	=2-	=2-
*lig	*	*lig	*	*	*
1C	.	1E	.	2G/	.
.	.	.	.	1A	.
1BB	.	1D	.	.	.
.	.	.	.	2G/	.
*Xlig	*	*Xlig	*	*	*
=3-	=3-	=3-	=3-	=3-	=3-
*lig	*	*lig	*	*	*
1AA	.	1E	.	1A	.
1GG	.	1G	.	0B	.
*Xlig	*	*Xlig	*	*	*
=4-	=4-	=4-	=4-	=4-	=4-
1G	.	1E	.	.	.
2G\	.	1C	-gnus	1c	-gnus
1E\	-gnus	.	.	.	.
=5-	=5-	=5-	=5-	=5-	=5-
*	*	*lig	*	*	*
.	.	1D	de-	2A/	de-
1D	de-	.	.	2B/	.
.	.	1E	.	2G/	.
2C/	.	.	.	1c\	.
*	*	*Xlig	*	*	*
=6-	=6-	=6-	=6-	=6-	=6-
*	*	*lig	*	*	*
1D	.	1F	.	.	.
*	*	*	*	*custos:c	*
.	.	.	.	2B/	.
!	!	!	!	!LO:LB:g=original	!
2AA/	.	1E	.	1c	.
2C/	.	.	.	.	.
*	*	*Xlig	*	*	*
=7-	=7-	=7-	=7-	=7-	=7-
1BB	.	1D	.	1d	.
2AA/	.	1E	-i	2c/	-i
1C/	-i	.	.	1e\	qui
=8-	=8-	=8-	=8-	=8-	=8-
.	.	1G	qui	.	.
*custos:AA	*	*	*	*	*
2BB/	qui	.	.	2d/	.
!LO:LB:g=original	!	!	!	!	!
*	*	*lig	*	*	*
1AA	.	1A	.	1c	.
=9-	=9-	=9-	=9-	=9-	=9-
*	*	*custos:c	*	*	*
2GG/	.	1B	.	2B/	.
1G	.	.	.	2G/	.
*	*	*Xlig	*	*	*
!	!	!LO:LB:g=original	!	!	!
*	*	*lig	*	*	*
.	.	1c	tol-	1A	tol-
2F/	to-	.	.	.	.
=10-	=10-	=10-	=10-	=10-	=10-
1G	.	1B	.	2G/	.
.	.	.	.	1g	.
*	*	*Xlig	*	*	*
*lig	*	*lig	*	*	*
1D	.	1A	.	.	.
.	.	.	.	2f\	.
=11-	=11-	=11-	=11-	=11-	=11-
1AA	.	1G	.	2g\	.
.	.	.	.	1d	.
*Xlig	*	*Xlig	*	*	*
*	*	*lig	*	*	*
1D	.	1A	.	.	.
*	*	*	*	*custos:d	*
.	.	.	.	2d/	-lis
!	!	!	!	!LO:LB:g=original	!
=12-	=12-	=12-	=12-	=12-	=12-
2BB/	.	1G	.	2d/	.
2C/	.	.	.	1e	.
*	*	*Xlig	*	*	*
1AA	.	1A	.	.	.
.	.	.	.	2f\	Pec-
=13-	=13-	=13-	=13-	=13-	=13-
1GG	-lis	1B	-lis	2g\	.
.	.	.	.	1G	.
1C	Pec-	1e	Pec-	.	.
.	.	.	.	2A/	.
=14-	=14-	=14-	=14-	=14-	=14-
1BB	-ca-	1d	-ca-	1B	-ca-
2GG/	-ta	1B	-ta	2B/	-ta
2BB/	.	.	.	1G/	.
=15-	=15-	=15-	=15-	=15-	=15-
*	*	*lig	*	*	*
1AA	m(un)-	1c	mun-	.	.
.	.	.	.	2F/	m(un)-
*custos:G	*	*	*	*	*
2GG/	.	1B	.	1G	.
!LO:LB:g=original	!	!	!	!	!
1G\	.	.	.	.	.
*	*	*Xlig	*	*	*
=16-	=16-	=16-	=16-	=16-	=16-
*	*	*lig	*	*	*
.	.	1A	.	1A	.
2F/	.	.	.	.	.
1G	.	1B	.	2G/	.
.	.	.	.	1g\	.
*	*	*Xlig	*	*	*
=17-	=17-	=17-	=17-	=17-	=17-
*lig	*	*lig	*	*	*
1D	-di	1A	-di	.	.
*	*	*	*	*custos:g	*
.	.	.	.	2f\	.
!	!	!	!	!LO:LB:g=original	!
1E	.	1G	.	2g\	-di
.	.	.	.	2G/	mi-
*Xlig	*	*Xlig	*	*	*
=18-	=18-	=18-	=18-	=18-	=18-
*lig	*	*lig	*	*	*
1E	mi-	1E	mi-	1B	.
1D	.	1F	.	1d	.
*Xlig	*	*Xlig	*	*	*
=19-	=19-	=19-	=19-	=19-	=19-
*	*	*lig	*	*	*
2AA/	.	1E	.	2c/	.
2C/	.	.	.	1A	.
*	*	*custos:E	*	*	*
1BB	.	1D	.	.	.
.	.	.	.	2G/	.
*	*	*Xlig	*	*	*
!	!	!LO:PB:g=original	!	!	!
=20-	=20-	=20-	=20-	=20-	=20-
1AA	.	1E	.	1A	.
*	*	*lig	*	*	*
1BB	.	1B	.	1d	.
=21-	=21-	=21-	=21-	=21-	=21-
1AA	.	1c	.	2e\	.
.	.	.	.	1f	.
*	*	*Xlig	*	*	*
2E/	.	1B	.	.	.
2G\	.	.	.	1e\	.
=22-	=22-	=22-	=22-	=22-	=22-
*	*	*lig	*	*	*
1F	.	1A	.	.	.
.	.	.	.	2d/	.
1E	.	1G	.	0e	-ſe-
*	*	*Xlig	*	*	*
!LO:LB:g=original	!	!	!	!	!
=23-	=23-	=23-	=23-	=23-	=23-
1G	-ſe-	1G	-ſe-	.	.
*	*	*	*	*custos:e	*
1G	-re-	1E	-re-	1e	-re
!	!	!	!	!LO:LB:g=original	!
=24-	=24-	=24-	=24-	=24-	=24-
2G\	-re	1C	-re	2e/	.
1A	no-	.	.	2c/	.
.	.	1D	no-	2f\	no-
2F/	.	.	.	2d/	.
=25-	=25-	=25-	=25-	=25-	=25-
*	*	*lig	*	*	*
2G/	.	1E	.	2e/	.
2E/	.	.	.	1c	.
1D	.	1F	.	.	.
.	.	.	.	2B/	.
*	*	*Xlig	*	*	*
=26-	=26-	=26-	=26-	=26-	=26-
*	*	*lig	*	*lig	*
1C	.	1E	.	1c	.
1D	.	1D	.	1A	.
*	*	*Xlig	*	*Xlig	*
=27-	=27-	=27-	=27-	=27-	=27-
*	*	*custos:e	*	*	*
0AAl;>	-bis	0El;>	-bis	1A;>	-bis
.	.	.	.	1c;>	.
!	!	!LO:LB:g=original	!	!	!
=28-	=28-	=28-	=28-	=28-	=28-
1E	A-	1e	A-	1e	A-
!LO:TX:a:t=P:problem=w źródle kawałek tesktu niewidoczny	!	!	!	!	!
1G	-gnus	1B	-gnus	1d	-gnus
=29-	=29-	=29-	=29-	=29-	=29-
*	*	*lig	*	*	*
*	*	*	*	*custos:g	*
1C	de-	1c	de-	1e	de-
!LO:PB:g=original	!	!	!	!LO:PB:g=original	!
1G	.	1B	.	1g	.
*	*	*Xlig	*	*	*
=30-	=30-	=30-	=30-	=30-	=30-
*lig	*	*	*	*	*
1A	-i	1A	.	1e	.
1E	.	1B	-i	1e	-i
*Xlig	*	*	*	*	*
=31-	=31-	=31-	=31-	=31-	=31-
*lig	*	*	*	*	*
1E	qui	1B	qui	0e	qui
*	*	*lig	*	*	*
1AA	.	1c	.	.	.
*Xlig	*	*	*	*	*
=32-	=32-	=32-	=32-	=32-	=32-
1BB	.	1d	.	1d	.
*	*	*Xlig	*	*	*
*	*	*lig	*	*lig	*
2AA/	.	1e	tol-	1c	tol-
1A\	to-	.	.	.	.
=33-	=33-	=33-	=33-	=33-	=33-
.	.	1d	.	1B	.
2G/	.	.	.	.	.
*	*	*Xlig	*	*Xlig	*
*	*	*lig	*	*	*
1A	.	1c	.	2A/	.
.	.	.	.	2e\	.
=34-	=34-	=34-	=34-	=34-	=34-
2D/	.	1d	.	2f\	.
2G/	.	.	.	2g\	.
*	*	*Xlig	*	*	*
*lig	*	*lig	*	*	*
1A	-lis	1c	-lis	0e	-lis
=35-	=35-	=35-	=35-	=35-	=35-
1E	.	1B	.	.	.
*Xlig	*	*Xlig	*	*	*
1C	Pec-	1e	Pec-	2e/	Pec-
.	.	.	.	2c/	-ca-
=36-	=36-	=36-	=36-	=36-	=36-
1BB	-ca-	1d	-ca-	2d/	-ta
*	*	*	*	*custos:B	*
.	.	.	.	1B	.
*custos:BB	*	*custos:c	*	*	*
2GG/	-ta	1B	-ta	.	.
!LO:LB:g=original	!	!	!	!LO:LB:g=original	!
2BB/	.	.	.	1G/	.
!	!	!LO:LB:g=original	!	!	!
=37-	=37-	=37-	=37-	=37-	=37-
*	*	*lig	*	*	*
1AA	m(un)-	1c	m(un)-	.	.
.	.	.	.	2F/	m(un)-
2GG/	.	1B	.	1G	.
1G\	.	.	.	.	.
*	*	*Xlig	*	*	*
=38-	=38-	=38-	=38-	=38-	=38-
*	*	*lig	*	*	*
.	.	1A	.	1A	.
2F/	.	.	.	.	.
1G	.	1B	.	2G/	.
.	.	.	.	1g\	.
*	*	*Xlig	*	*	*
=39-	=39-	=39-	=39-	=39-	=39-
*	*	*lig	*	*	*
1D	-di	1A	-di	.	.
.	.	.	.	2f\	.
1E	.	1G	.	2g\	-di
.	.	.	.	2G/	mi-
*	*	*Xlig	*	*	*
=40-	=40-	=40-	=40-	=40-	=40-
*	*	*lig	*	*	*
1E	mi-	1E	mi-	1B	.
1D	.	1F	.	1d	.
*	*	*Xlig	*	*	*
=41-	=41-	=41-	=41-	=41-	=41-
*	*	*lig	*	*	*
2AA/	.	1E	.	2c/	.
2C/	.	.	.	1A	.
1BB	.	1D	.	.	.
.	.	.	.	2G/	.
*	*	*Xlig	*	*	*
=42-	=42-	=42-	=42-	=42-	=42-
*custos:BB	*	*	*	*custos:d	*
1AA	.	1E	.	1A	.
!LO:LB:g=original	!	!	!	!LO:LB:g=original	!
1BB	.	1B	.	1d	.
=43-	=43-	=43-	=43-	=43-	=43-
*	*	*lig	*	*	*
1AA	.	1c	.	2e\	.
.	.	.	.	1f	.
2E/	.	1B	.	.	.
2G\	.	.	.	1e\	.
*	*	*Xlig	*	*	*
=44-	=44-	=44-	=44-	=44-	=44-
*	*	*lig	*	*	*
1F	.	1A	.	.	.
.	.	.	.	2d/	-ſe-
1E	.	1G	.	1e	-re-
*	*	*Xlig	*	*	*
=45-	=45-	=45-	=45-	=45-	=45-
1G	-ſe-	1G	-ſe-	0e	-re
1G	-re-	1E	-re-	.	.
=46-	=46-	=46-	=46-	=46-	=46-
2G\	-re	1C	-re	2e/	No-
1A	no-	.	.	2c/	.
*	*	*lig	*	*	*
.	.	1D	no-	2f\	.
2F/	.	.	.	2d/	.
=47-	=47-	=47-	=47-	=47-	=47-
*	*	*custos:F	*	*	*
2G\	.	1E	.	2e/	.
2E/	.	.	.	1c	.
*	*	*Xlig	*	*	*
!	!	!LO:LB:g=original	!	!	!
*	*	*lig	*	*	*
1D	.	1F	.	.	.
.	.	.	.	2B/	.
=48-	=48-	=48-	=48-	=48-	=48-
*custos:D	*	*	*	*	*
1C	.	1E	.	1c	.
*	*	*Xlig	*	*	*
!LO:LB:g=original	!	!	!	!	!
1D	.	1D	.	1A	.
=49-	=49-	=49-	=49-	=49-	=49-
*custos:E	*	*custos:F	*	*	*
!LO:TX:a:t=P:problem=w źródle brak kreski końcowej	!	!LO:TX:a:t=P:problem=w źródle brak kreski końcowej	!	!	!
!	!	!	!	!LO:TX:a:t=P:problem=w źródle brak kreski końcowej	!
!LO:TX:a:t=P:problem=w źródle po ostatniej nucie długi znak custos	!	!LO:TX:a:t=P:problem=w źródle po ostatniej nucie długi znak custos	!	!	!
!	!	!	!	!LO:TX:a:t=P:problem=tu najprawdopodobniej powinna być longa	!
!	!	!	!	!LO:N:vis=1	!
0AAl;>	-bis	0El;>	-bis	0A;;	-bis
==	==	==	==	==	==
*-	*-	*-	*-	*-	*-
!!!system-decoration: [(s1,s2,s3)]
!!!RDF**kern: > = above
!!!RDF**kern: < = below
!!!RDF**kern: | = vertical stroke
!!!RDF**kern: N = linked
!!!RDF**kern: i = editorial accidental
!!!RDF**kern: l = terminal long
!!!ENC: Berenika Jozajtis
!!!END: 2022-01-02
!!!EED: Wojciech Jakubiak-Danek
!!!EEV: 2022-01-03
!!!YEC: Copyright 2022 Narodowy Instytut Fryderyka Chopina (https://polishscores.org)
!!!YEM: Licence CC BY 4.0 (https://creativecommons.org/licenses/by/4.0)
